betterme/img/page-email/Vector_by0kvd.svg

<svg xmlns="http://www.w3.org/2000/svg" width="16" height="20" fill="none" xmlns:v="https://vecta.io/nano"><path d="M16 10c0-1.103-.897-2-2-2h-1V5c0-2.757-2.243-5-5-5S3 2.243 3 5v3H2c-1.103 0-2 .897-2 2v8c0 1.103.897 2 2 2h12c1.103 0 2-.897 2-2v-8zM5 5c0-1.654 1.346-3 3-3s3 1.346 3 3v3H5V5z" fill="#869aaf"/></svg>

<svg width="16" height="20" viewBox="0 0 16 20" fill="none" xmlns="http://www.w3.org/2000/svg">
<path d="M16 10C16 8.897 15.103 8 14 8H13V5C13 2.243 10.757 0 8 0C5.243 0 3 2.243 3 5V8H2C0.897 8 0 8.897 0 10V18C0 19.103 0.897 20 2 20H14C15.103 20 16 19.103 16 18V10ZM5 5C5 3.346 6.346 2 8 2C9.654 2 11 3.346 11 5V8H5V5Z" fill="#869AAF"/>
</svg>
